X:2027
T:My love is as the sun 
C:Charles Clague, Ballaclague
O:Isle of Man
S:Traditional
Z:Clague collection
B:Kiaull Vannin #27 
M:2/4 
L:1/8 
Q:160 
K:D 
D2|DE FG|A3 A|Bd ce|d2 A2|Ad fd|B2 AG|A2 A2| 
FE Fd|F2 ED|ED EF|GF GA|Bd FA|AG EC|D2|| 
